X: 177
T: No_86_Song_of_the_Fire-charm.krn
N: Derived from No_86_Song_of_the_Fire-charm.krn
%%abc-version 2.0
%%abcx-abcm2ps-target-version 5.9.1 (29 Sep 2008)
%%abc-creator hum2abc beta
%%abcx-conversion-date 2019/03/15 08:29:13
%%humdrum-veritas 3950904388
%%humdrum-veritas-data 4086476416
%%linebreak <none>
%%barnumbers 0
L: 1/8
M: 2/4
%%staves {1 2}
V: 1 clef=bass
V: 2 clef=bass
K: Eb
[V:1] z/ G,/ (3G,G,C [I:setbarnb 1]| 
[V:2] z3 | 
[V:1] C3/C/ CG,/G,/ ||  
[V:2] G,,G,, G,,G,, ||  
[V:1] [M:3/4]G,3/G,/ G,3/G,/ (3G,B,B, ||  
[V:2] [M:3/4]G,,G,, G,,G,, G,,G,, ||  
[V:1] [M:2/4]B,3/B,/ B,B,/B,/ ||  
[V:2] [M:2/4]z4 ||  
[V:1] [M:3/4]B,3/B,/ B,3/G,/ (3G,B,B, ||  
[V:2] [M:3/4]z6 ||  
[V:1] [M:2/4]G,3/G,/ G,G,/G,/ ]|:  
[V:2] [M:2/4]z4 ]|:  
[V:1] [M:3/4]G,3/G,/ G,3/G,/ (3G,G,F, ||  
[V:2] [M:3/4]z6 ||  
[V:1] [M:2/4]F,3/F,/ F,F,/E,/ ||  
[V:2] [M:2/4]z4 ||  
[V:1] [M:3/4]F,3/F,/ F,3/F,/ (3F,G,F, ||  
[V:2] [M:3/4]z6 ||  
[V:1] [M:2/4]F,3/F,/ F,C,/C,/ | 
[V:2] [M:2/4]z4 | 
[V:1] C,3/C,/ C,G,/G,/ | 
[V:2] z4 | 
[V:1] B,3/B,/ B, B,//B,//B,//B,// | 
[V:2] z4 | 
[V:1] G,3/G,/ G,G,/G,/ :|]  
[V:2] z4 :|]  



